X: 19998
T: Jim McAllister's
R: jig
M: 6/8
K: Gmajor
gfe dBA|:GgG eGd|~G3 AGE|DGG BGG|Bee dBA|
GgG eGd|~G3 AGE|DGG FGA|1 BGG G2B:|2 BGG G2e||
|:dgb agf|gfg edB|eAA ABA|GBA GFE|
DGG BGG|Bdd g2e|dBG FGA|1 BGG G2e:|2 BGG G2B||

